public/library/moralis-unity-sdk-icon-light.svg

<svg xmlns="http://www.w3.org/2000/svg" width="668" height="582" fill="none" viewBox="0 0 668 582"><g filter="url(#a)"><path fill="url(#b)" fill-opacity=".4" d="M336.185 557.376c149.772 0 271.185-120.967 271.185-270.188S485.957 17 336.185 17C186.414 17 65 137.967 65 287.188s121.414 270.188 271.185 270.188"/><path fill="url(#c)" fill-opacity=".5" d="M336.185 557.376c149.772 0 271.185-120.967 271.185-270.188S485.957 17 336.185 17C186.414 17 65 137.967 65 287.188s121.414 270.188 271.185 270.188"/><path stroke="url(#d)" stroke-width="4" d="M605.37 287.188c0 148.109-120.511 268.188-269.185 268.188S67 435.297 67 287.188 187.511 19 336.185 19 605.37 139.079 605.37 287.188Z"/></g><g filter="url(#e)"><path fill="#041836" d="m465.52 383.284-.155-.076c-.465.686-1.008 1.372-1.472 2.058.542-.686 1.162-1.296 1.627-1.982"/><path fill="#041836" d="M507.67 259.35c-1.394-54.802-46.875-98.782-102.816-98.782-27.506 0-52.377 10.671-70.895 27.973-18.363-17.302-43.156-27.973-70.43-27.973-55.94 0-101.421 44.513-102.816 100.002v.762c0 42.226 15.573 79.727 29.83 105.489a283 283 0 0 0 19.99 31.25c2.712 3.735 5.114 6.708 6.818 8.842a64 64 0 0 0 2.092 2.515c.233.305.465.534.62.763l.232.228.078.076.077.077c11.932 13.643 32.697 15.015 46.411 3.125 13.637-11.891 15.031-32.547 3.177-46.19v-.076q0-.115-.233-.229c-.232-.305-.619-.762-1.239-1.448-1.085-1.372-2.79-3.506-4.882-6.403-4.184-5.716-9.84-14.024-15.418-24.238-11.467-20.732-21.54-46.875-21.695-73.4.698-19.817 17.046-35.671 37.036-35.671 20.145 0 36.571 16.006 37.036 36.052a33.5 33.5 0 0 0 3.641 14.177c4.649 12.272 16.658 21.037 30.76 21.037 18.13 0 32.852-14.482 32.852-32.394v-4.344c.697-19.589 17.045-35.214 37.035-35.214s36.339 15.701 37.036 35.214c-.078 21.341-7.051 42.302-14.876 58.918a212 212 0 0 1-10.46 19.36c-1.395 2.287-2.557 3.964-3.254 5.031-.388.533-.62.914-.775 1.067-.078.076-.078.152-.155.152-.078.153-.31.458-.31.458 6.043-7.47 15.264-12.196 25.724-12.196 18.13 0 32.851 14.482 32.851 32.318 0 6.478-1.937 12.424-5.268 17.53l.155.077v-.077l.077-.076c.077-.076.077-.152.155-.228q.232-.23.465-.686c.387-.534.852-1.22 1.472-2.135 1.24-1.753 2.867-4.268 4.804-7.393a255 255 0 0 0 14.101-25.991c10.073-21.342 20.92-52.135 20.92-86.587v-.381z"/><path fill="#b7e803" d="M437.783 333.36c-10.382 0-19.68 4.802-25.723 12.196-4.494 5.488-7.128 12.5-7.128 20.122 0 17.835 14.721 32.317 32.851 32.317 10.693 0 20.068-5.03 26.111-12.729.543-.685 1.008-1.371 1.472-2.057a31.63 31.63 0 0 0 5.269-17.531c0-17.836-14.644-32.318-32.852-32.318"/></g><defs><linearGradient id="c" x1="336.185" x2="336.185" y1="17" y2="557.376" gradientUnits="userSpaceOnUse"><stop stop-color="#fff"/><stop offset="1" stop-color="#fff" stop-opacity="0"/></linearGradient><linearGradient id="d" x1="181.447" x2="454.909" y1="64.768" y2="534.68" gradientUnits="userSpaceOnUse"><stop stop-color="#fff"/><stop offset="1" stop-color="#fff" stop-opacity="0"/></linearGradient><filter id="a" width="622.37" height="620.376" x="25" y="-23" color-interpolation-filters="sRGB" filterUnits="userSpaceOnUse"><feFlood flood-opacity="0" result="BackgroundImageFix"/><feGaussianBlur in="BackgroundImage" stdDeviation="20"/><feComposite in2="SourceAlpha" operator="in" result="effect1_backgroundBlur"/><feBlend in="SourceGraphic" in2="effect1_backgroundBlur" result="shape"/></filter><filter id="e" width="666.958" height="581.215" x=".713" y=".568" color-interpolation-filters="sRGB" filterUnits="userSpaceOnUse"><feFlood flood-opacity="0" result="BackgroundImageFix"/><feColorMatrix in="SourceAlpha" values="0 0 0 0 0 0 0 0 0 0 0 0 0 0 0 0 0 0 127 0"/><feOffset/><feGaussianBlur stdDeviation="80"/><feColorMatrix values="0 0 0 0 1 0 0 0 0 1 0 0 0 0 1 0 0 0 1 0"/><feBlend in2="BackgroundImageFix" result="effect1_dropShadow"/><feBlend in="SourceGraphic" in2="effect1_dropShadow" result="shape"/></filter><radialGradient id="b" cx="0" cy="0" r="1" gradientTransform="rotate(85.816 125.088 124.706)scale(576.776 618.653)" gradientUnits="userSpaceOnUse"><stop offset=".005" stop-color="#ecf5fc"/><stop offset="1" stop-color="#cee4f3"/></radialGradient></defs></svg>

<svg width="668" height="582" viewBox="0 0 668 582" fill="none" xmlns="http://www.w3.org/2000/svg">
<g filter="url(#filter0_b)">
<path d="M336.185 557.376C485.957 557.376 607.37 436.409 607.37 287.188C607.37 137.967 485.957 17 336.185 17C186.414 17 65 137.967 65 287.188C65 436.409 186.414 557.376 336.185 557.376Z" fill="url(#paint0_radial)" fill-opacity="0.4"/>
<path d="M336.185 557.376C485.957 557.376 607.37 436.409 607.37 287.188C607.37 137.967 485.957 17 336.185 17C186.414 17 65 137.967 65 287.188C65 436.409 186.414 557.376 336.185 557.376Z" fill="url(#paint1_linear)" fill-opacity="0.5"/>
<path d="M605.37 287.188C605.37 435.297 484.859 555.376 336.185 555.376C187.511 555.376 67 435.297 67 287.188C67 139.079 187.511 19 336.185 19C484.859 19 605.37 139.079 605.37 287.188Z" stroke="url(#paint2_linear)" stroke-width="4"/>
</g>
<g filter="url(#filter1_d)">
<path d="M465.52 383.284L465.365 383.208C464.9 383.894 464.357 384.58 463.893 385.266C464.435 384.58 465.055 383.97 465.52 383.284Z" fill="#041836"/>
<path d="M507.67 259.35C506.276 204.548 460.795 160.568 404.854 160.568C377.348 160.568 352.477 171.239 333.959 188.541C315.596 171.239 290.803 160.568 263.529 160.568C207.589 160.568 162.108 205.081 160.713 260.57V260.951V261.332C160.713 303.558 176.286 341.059 190.543 366.821C197.749 379.931 205.032 390.602 210.533 398.071C213.245 401.806 215.647 404.779 217.351 406.913C218.203 407.98 218.901 408.819 219.443 409.428C219.676 409.733 219.908 409.962 220.063 410.191C220.14 410.267 220.218 410.343 220.295 410.419L220.373 410.495L220.45 410.572C232.382 424.215 253.147 425.587 266.861 413.697C280.498 401.806 281.892 381.15 270.038 367.507C270.038 367.507 270.038 367.507 270.038 367.431C270.038 367.355 269.96 367.278 269.805 367.202C269.573 366.897 269.186 366.44 268.566 365.754C267.481 364.382 265.776 362.248 263.684 359.351C259.5 353.635 253.844 345.327 248.266 335.113C236.799 314.381 226.726 288.238 226.571 261.713C227.269 241.896 243.617 226.042 263.607 226.042C283.752 226.042 300.178 242.048 300.643 262.094C300.798 267.201 302.115 272.003 304.284 276.271C308.933 288.543 320.942 297.308 335.044 297.308C353.174 297.308 367.896 282.826 367.896 264.914V260.57C368.593 240.981 384.941 225.356 404.931 225.356C424.921 225.356 441.27 241.057 441.967 260.57C441.889 281.911 434.916 302.872 427.091 319.488C423.217 327.644 419.42 334.275 416.631 338.848C415.236 341.135 414.074 342.812 413.377 343.879C412.989 344.412 412.757 344.793 412.602 344.946C412.524 345.022 412.524 345.098 412.447 345.098C412.369 345.251 412.137 345.556 412.137 345.556C418.18 338.086 427.401 333.36 437.861 333.36C455.991 333.36 470.712 347.842 470.712 365.678C470.712 372.156 468.775 378.102 465.444 383.208C465.599 383.285 465.599 383.285 465.599 383.285V383.208L465.676 383.132C465.753 383.056 465.753 382.98 465.831 382.904C465.986 382.751 466.141 382.522 466.296 382.218C466.683 381.684 467.148 380.998 467.768 380.083C469.008 378.33 470.635 375.815 472.572 372.69C476.446 366.44 481.56 357.598 486.673 346.699C496.746 325.357 507.593 294.564 507.593 260.112V259.731L507.67 259.35Z" fill="#041836"/>
<path d="M437.783 333.36C427.401 333.36 418.103 338.162 412.06 345.556C407.566 351.044 404.932 358.056 404.932 365.678C404.932 383.513 419.653 397.995 437.783 397.995C448.476 397.995 457.851 392.965 463.894 385.266C464.437 384.581 464.902 383.895 465.366 383.209C468.698 378.178 470.635 372.157 470.635 365.678C470.635 347.842 455.991 333.36 437.783 333.36Z" fill="#B7E803"/>
</g>
<defs>
<filter id="filter0_b" x="25" y="-23" width="622.37" height="620.376" filterUnits="userSpaceOnUse" color-interpolation-filters="sRGB">
<feFlood flood-opacity="0" result="BackgroundImageFix"/>
<feGaussianBlur in="BackgroundImage" stdDeviation="20"/>
<feComposite in2="SourceAlpha" operator="in" result="effect1_backgroundBlur"/>
<feBlend mode="normal" in="SourceGraphic" in2="effect1_backgroundBlur" result="shape"/>
</filter>
<filter id="filter1_d" x="0.712891" y="0.568359" width="666.958" height="581.215" filterUnits="userSpaceOnUse" color-interpolation-filters="sRGB">
<feFlood flood-opacity="0" result="BackgroundImageFix"/>
<feColorMatrix in="SourceAlpha" type="matrix" values="0 0 0 0 0 0 0 0 0 0 0 0 0 0 0 0 0 0 127 0"/>
<feOffset/>
<feGaussianBlur stdDeviation="80"/>
<feColorMatrix type="matrix" values="0 0 0 0 1 0 0 0 0 1 0 0 0 0 1 0 0 0 1 0"/>
<feBlend mode="normal" in2="BackgroundImageFix" result="effect1_dropShadow"/>
<feBlend mode="normal" in="SourceGraphic" in2="effect1_dropShadow" result="shape"/>
</filter>
<radialGradient id="paint0_radial" cx="0" cy="0" r="1" gradientUnits="userSpaceOnUse" gradientTransform="translate(240.335 -9.14723) rotate(85.8161) scale(576.776 618.653)">
<stop offset="0.00520833" stop-color="#ECF5FC"/>
<stop offset="1" stop-color="#CEE4F3"/>
</radialGradient>
<linearGradient id="paint1_linear" x1="336.185" y1="17" x2="336.185" y2="557.376" gradientUnits="userSpaceOnUse">
<stop stop-color="white"/>
<stop offset="1" stop-color="white" stop-opacity="0"/>
</linearGradient>
<linearGradient id="paint2_linear" x1="181.447" y1="64.7682" x2="454.909" y2="534.68" gradientUnits="userSpaceOnUse">
<stop stop-color="white"/>
<stop offset="1" stop-color="white" stop-opacity="0"/>
</linearGradient>
</defs>
</svg>
